src/assets/icon-coins.svg

<svg width="49" height="49" viewBox="0 0 49 49" fill="none" xmlns="http://www.w3.org/2000/svg">
<g clip-path="url(#clip0)">
<path fill-rule="evenodd" clip-rule="evenodd" d="M36.5933 24.5866C36.8126 23.6542 37.7463 23.0762 38.6787 23.2955C41.4839 23.9554 43.7833 25.0469 45.4208 26.3918C47.0256 27.7098 48.1789 29.4405 48.1789 31.3571C48.1789 34.6725 45.311 37.2185 41.9454 38.8278C38.4253 40.5109 33.6731 41.5402 28.4933 41.5402C23.7048 41.5402 19.2914 40.6614 15.878 39.2082C12.5751 37.8019 9.77673 35.6615 9.00747 32.8555C8.75421 31.9317 9.29778 30.9775 10.2216 30.7243C11.1453 30.471 12.0995 31.0146 12.3528 31.9384C12.6882 33.1618 14.205 34.7258 17.2368 36.0167C20.1582 37.2605 24.099 38.0714 28.4933 38.0714C33.2557 38.0714 37.4791 37.1185 40.4491 35.6984C43.5735 34.2044 44.7102 32.5261 44.7102 31.3571C44.7102 30.8771 44.3913 30.035 43.2193 29.0724C42.08 28.1367 40.2979 27.2399 37.8844 26.6721C36.952 26.4527 36.3739 25.519 36.5933 24.5866Z" fill="url(#paint0_linear)"/>
<path fill-rule="evenodd" clip-rule="evenodd" d="M8.33773 13.8745C5.21645 15.2137 4.16113 16.7406 4.16113 17.8527C4.16113 19.0201 5.2931 20.6946 8.40343 22.1852C11.3606 23.6024 15.5662 24.5535 20.309 24.5535C25.0518 24.5535 29.2574 23.6024 32.2145 22.1852C35.3248 20.6946 36.4568 19.0201 36.4568 17.8527C36.4568 16.7406 35.4015 15.2137 32.2802 13.8745C29.3183 12.6037 25.0935 11.8008 20.309 11.8008C15.5245 11.8008 11.2997 12.6037 8.33773 13.8745ZM6.97003 10.6868C10.4732 9.18375 15.1895 8.33203 20.309 8.33203C25.4285 8.33203 30.1448 9.18375 33.6479 10.6868C36.9918 12.1215 39.9255 14.4877 39.9255 17.8527C39.9255 21.1624 37.0684 23.7055 33.7136 25.3133C30.2057 26.9944 25.4702 28.0223 20.309 28.0223C15.1478 28.0223 10.4123 26.9944 6.90433 25.3133C3.54954 23.7055 0.692383 21.1624 0.692383 17.8527C0.692383 14.4877 3.62619 12.1214 6.97003 10.6868Z" fill="url(#paint1_linear)"/>
<path fill-rule="evenodd" clip-rule="evenodd" d="M10.6807 29.9604C11.6385 29.9604 12.415 30.737 12.415 31.6948C12.415 32.8372 13.5363 34.4967 16.6525 35.9782C19.6109 37.3847 23.8182 38.3287 28.5629 38.3287C33.3075 38.3287 37.5149 37.3847 40.4732 35.9782C43.5894 34.4967 44.7107 32.8372 44.7107 31.6948C44.7107 30.737 45.4872 29.9604 46.4451 29.9604C47.4029 29.9604 48.1794 30.737 48.1794 31.6948V37.102C48.1794 40.4516 45.2877 42.9074 41.9337 44.4269C38.427 46.0155 33.7013 46.9471 28.5629 46.9471C23.4245 46.9471 18.6987 46.0155 15.1921 44.4269C11.838 42.9074 8.94629 40.4516 8.94629 37.102V31.6948C8.94629 30.737 9.7228 29.9604 10.6807 29.9604ZM12.4598 37.5169C12.6936 38.6232 13.8697 40.0197 16.6235 41.2673C19.582 42.6076 23.7973 43.4784 28.5629 43.4784C33.3284 43.4784 37.5437 42.6076 40.5022 41.2673C43.256 40.0197 44.4321 38.6232 44.6659 37.5169C43.8417 38.1223 42.9219 38.6548 41.9626 39.1109C38.4559 40.7781 33.7222 41.7974 28.5629 41.7974C23.4035 41.7974 18.6698 40.7781 15.1631 39.1109C14.2038 38.6548 13.2841 38.1223 12.4598 37.5169Z" fill="url(#paint2_linear)"/>
<path fill-rule="evenodd" clip-rule="evenodd" d="M8.39858 22.4606C11.357 23.8672 15.5644 24.8112 20.309 24.8112C25.0536 24.8112 29.261 23.8672 32.2194 22.4606C35.3355 20.9791 36.4568 19.3196 36.4568 18.1772H39.9255V23.5844C39.9255 26.9341 37.0338 29.3899 33.6798 30.9094C30.1732 32.498 25.4474 33.4295 20.309 33.4295C15.1706 33.4295 10.4448 32.498 6.93818 30.9094C3.5841 29.3899 0.692383 26.9341 0.692383 23.5844V18.1772H4.16113C4.16113 19.3196 5.28241 20.9791 8.39858 22.4606ZM4.20594 23.9994C4.43974 25.1056 5.61581 26.5022 8.36958 27.7497C11.3281 29.09 15.5434 29.9608 20.309 29.9608C25.0746 29.9608 29.2899 29.09 32.2484 27.7497C35.0021 26.5022 36.1782 25.1057 36.412 23.9994C35.5878 24.6047 34.668 25.1373 33.7088 25.5933C30.2021 27.2606 25.4684 28.2799 20.309 28.2799C15.1496 28.2799 10.4159 27.2606 6.90918 25.5933C5.94993 25.1373 5.03015 24.6047 4.20594 23.9994Z" fill="url(#paint3_linear)"/>
</g>
<defs>
<linearGradient id="paint0_linear" x1="30.6689" y1="-8.37835" x2="20.4848" y2="38.7164" gradientUnits="userSpaceOnUse">
<stop stop-color="#32FFF5"/>
<stop offset="1" stop-color="#01BFE3"/>
</linearGradient>
<linearGradient id="paint1_linear" x1="22.4157" y1="-25.7145" x2="10.6972" y2="24.6253" gradientUnits="userSpaceOnUse">
<stop stop-color="#32FFF5"/>
<stop offset="1" stop-color="#01BFE3"/>
</linearGradient>
<linearGradient id="paint2_linear" x1="30.6696" y1="0.588673" x2="21.832" y2="44.5951" gradientUnits="userSpaceOnUse">
<stop stop-color="#32FFF5"/>
<stop offset="1" stop-color="#01BFE3"/>
</linearGradient>
<linearGradient id="paint3_linear" x1="22.4157" y1="-8.19558" x2="15.2367" y2="31.6168" gradientUnits="userSpaceOnUse">
<stop stop-color="#32FFF5"/>
<stop offset="1" stop-color="#01BFE3"/>
</linearGradient>
<clipPath id="clip0">
<rect width="48" height="48" fill="white" transform="translate(0.695312 0.967773)"/>
</clipPath>
</defs>
</svg>

<svg width="49" height="49" fill="none" xmlns="http://www.w3.org/2000/svg"><g clip-path="url(#a)" fill-rule="evenodd" clip-rule="evenodd"><path d="M36.593 24.587a1.734 1.734 0 0 1 2.086-1.291c2.805.66 5.104 1.75 6.742 3.096 1.605 1.318 2.758 3.049 2.758 4.965 0 3.316-2.868 5.861-6.234 7.47-3.52 1.684-8.272 2.713-13.452 2.713-4.788 0-9.202-.879-12.615-2.332-3.303-1.406-6.101-3.547-6.87-6.352a1.734 1.734 0 1 1 3.345-.918c.335 1.224 1.852 2.788 4.884 4.079 2.921 1.243 6.862 2.054 11.256 2.054 4.763 0 8.986-.953 11.956-2.373 3.125-1.494 4.261-3.172 4.261-4.34 0-.48-.319-1.323-1.49-2.286-1.14-.935-2.922-1.832-5.336-2.4a1.734 1.734 0 0 1-1.29-2.085z" fill="url(#b)"/><path d="M8.338 13.874c-3.122 1.34-4.177 2.867-4.177 3.979 0 1.167 1.132 2.842 4.242 4.332 2.958 1.417 7.163 2.369 11.906 2.369s8.948-.952 11.905-2.369c3.11-1.49 4.243-3.165 4.243-4.332 0-1.112-1.056-2.64-4.177-3.979-2.962-1.27-7.187-2.073-11.971-2.073-4.785 0-9.01.803-11.971 2.073zM6.97 10.688c3.503-1.503 8.22-2.355 13.339-2.355 5.12 0 9.836.852 13.339 2.355 3.344 1.434 6.277 3.8 6.277 7.166 0 3.31-2.857 5.852-6.211 7.46-3.508 1.681-8.244 2.71-13.405 2.71s-9.897-1.029-13.405-2.71C3.55 23.706.692 21.163.692 17.853c0-3.365 2.934-5.732 6.278-7.166z" fill="url(#c)"/><path d="M10.68 29.96c.959 0 1.735.777 1.735 1.735 0 1.142 1.121 2.802 4.238 4.283 2.958 1.407 7.165 2.35 11.91 2.35 4.744 0 8.952-.943 11.91-2.35 3.116-1.481 4.238-3.14 4.238-4.283a1.734 1.734 0 0 1 3.468 0v5.407c0 3.35-2.891 5.805-6.245 7.325-3.507 1.589-8.233 2.52-13.371 2.52-5.139 0-9.864-.931-13.37-2.52-3.355-1.52-6.247-3.975-6.247-7.325v-5.407c0-.958.777-1.735 1.735-1.735zm1.78 7.557c.234 1.106 1.41 2.503 4.163 3.75 2.959 1.34 7.174 2.211 11.94 2.211 4.765 0 8.98-.87 11.94-2.21 2.753-1.248 3.93-2.645 4.163-3.751a16.68 16.68 0 0 1-2.703 1.594c-3.507 1.667-8.24 2.686-13.4 2.686s-9.893-1.019-13.4-2.686a16.685 16.685 0 0 1-2.703-1.594z" fill="url(#d)"/><path d="M8.399 22.46c2.958 1.407 7.165 2.351 11.91 2.351s8.952-.944 11.91-2.35c3.117-1.482 4.238-3.141 4.238-4.284h3.468v5.407c0 3.35-2.891 5.806-6.245 7.325-3.507 1.589-8.233 2.52-13.371 2.52s-9.864-.931-13.37-2.52C3.583 29.39.691 26.934.691 23.584v-5.407h3.47c0 1.143 1.12 2.802 4.237 4.284zM4.206 24c.234 1.106 1.41 2.502 4.164 3.75 2.958 1.34 7.173 2.21 11.939 2.21s8.98-.87 11.94-2.21c2.753-1.248 3.93-2.644 4.163-3.75a16.683 16.683 0 0 1-2.703 1.593c-3.507 1.668-8.24 2.687-13.4 2.687s-9.893-1.02-13.4-2.687A16.682 16.682 0 0 1 4.206 24z" fill="url(#e)"/></g><defs><linearGradient id="b" x1="30.669" y1="-8.378" x2="20.485" y2="38.716" gradientUnits="userSpaceOnUse"><stop stop-color="#32FFF5"/><stop offset="1" stop-color="#01BFE3"/></linearGradient><linearGradient id="c" x1="22.416" y1="-25.715" x2="10.697" y2="24.625" gradientUnits="userSpaceOnUse"><stop stop-color="#32FFF5"/><stop offset="1" stop-color="#01BFE3"/></linearGradient><linearGradient id="d" x1="30.67" y1=".589" x2="21.832" y2="44.595" gradientUnits="userSpaceOnUse"><stop stop-color="#32FFF5"/><stop offset="1" stop-color="#01BFE3"/></linearGradient><linearGradient id="e" x1="22.416" y1="-8.196" x2="15.237" y2="31.617" gradientUnits="userSpaceOnUse"><stop stop-color="#32FFF5"/><stop offset="1" stop-color="#01BFE3"/></linearGradient><clipPath id="a"><path fill="#fff" transform="translate(.695 .968)" d="M0 0h48v48H0z"/></clipPath></defs></svg>
